X:1
T:Science, 87.87
T:Science, 87.87
T:Lyman Foster Brackett (1852-1937)
T:Public Domain Courtesy of the Cyber Hymnal™
C:Lyman Foster Brackett (1852-1937)
Z:Public Domain
Z:Courtesy of the Cyber Hymnal™
%%score ( 1 2 ) ( 3 4 )
L:1/8
Q:1/4=110
M:4/4
K:Eb
V:1 treble 
V:2 treble 
V:3 bass 
V:4 bass 
V:1
 [EB]2 | [Ee]2 [Ec]2 [EB]3 E | [EF]2 [DA]2 [EG]3 [EG] | F2 [DB]2 c3 z e x | [Fd]4 [FB]2 [FB]2 | %5
 [GB]2 [Ge]2 [Ge]3 [EG] | [EB]2 [DA]2 [EG]3 [EG] | [EF]2 [EA]2 A3 [B,D] | [B,E]4 [B,E]2 |] %9
V:2
 x2 | x7 E | x8 | F2 E2 E2 x4 | x8 | x8 | x8 | x4 E2 D x | x6 |] %9
V:3
 [E,G,]2 | [G,B,]2 A,2 [G,B,]3 [G,B,] | [A,C]2 B,2 [E,B,]3 [E,B,] | [D,B,]2 [B,,B,]2 B,2 z x3 | %4
 [B,,B,]4 [B,,D]2 [D,B,]2 | [E,B,]2 [E,B,]2 [C,C]3 [C,C] | [G,,B,]2 [B,,B,]2 [E,B,]3 [G,B,] | %7
 [A,C]2 [F,C]2 C2 B,[B,,A,] | (A,3 F,) [E,G,]2 |] %9
V:4
 x2 | x2 A,2 x4 | x2 B,2 x4 | x4 F,3 (=A,2 F,) | x8 | x8 | x8 | x4 B,,3 x | E,4 x2 |] %9

